X: 3
T: Leaving for Boston
C: Armand Aromin
M: 3/4
L: 1/4
H: 4/9/04
K: D
D || G2 B | d2 g | f2 g/2f/2 | e2 D |
G2 B | d2 g | f e c | d2 a |
b2 f | a2 f | e d c | B2 e |
f2 d | e2 c | d3 |1 d2 D :|2 d2 a ||
b2 a | f2 e | d2 B/2d/2 | A2 F |
A2 F | B2 A/2B/2 | A3 | A2 f |
a f e | d2 B/2d/2 | A2 A/2B/2 | F2 f |
g f e | d2 B | d3 |1 d2 a :|2 d2 D |]
